public/img/assets/icons/weather-conditions/small/partly-cloudy-night.svg

<svg width="24" height="24" viewBox="0 0 24 24" fill="none" xmlns="http://www.w3.org/2000/svg">
<path d="M13.002 8.012C16.17 8.012 17.968 10.11 18.229 12.642H18.309C18.7933 12.6413 19.2729 12.7361 19.7206 12.9208C20.1682 13.1056 20.5751 13.3767 20.9179 13.7187C21.2608 14.0607 21.5329 14.4669 21.7187 14.9141C21.9046 15.3613 22.0005 15.8407 22.001 16.325C22.0005 16.8093 21.9046 17.2887 21.7187 17.7359C21.5329 18.1831 21.2608 18.5893 20.9179 18.9313C20.5751 19.2733 20.1682 19.5444 19.7206 19.7292C19.2729 19.9139 18.7933 20.0087 18.309 20.008H7.694C7.20973 20.0087 6.73008 19.9139 6.28243 19.7292C5.83479 19.5444 5.42792 19.2733 5.08508 18.9313C4.74223 18.5893 4.47012 18.1831 4.28428 17.7359C4.09844 17.2887 4.00252 16.8093 4.002 16.325C4.00252 15.8407 4.09844 15.3613 4.28428 14.9141C4.47012 14.4669 4.74223 14.0607 5.08508 13.7187C5.42792 13.3767 5.83479 13.1056 6.28243 12.9208C6.73008 12.7361 7.20973 12.6413 7.694 12.642H7.774C8.037 10.093 9.834 8.012 13.002 8.012V8.012ZM6.589 4.005C7.38586 4.04767 8.16132 4.27829 8.852 4.678C9.86602 5.26154 10.6463 6.17863 11.06 7.273C9.076 7.836 7.656 9.275 7.066 11.22L6.997 11.466L6.939 11.704L6.733 11.742C5.60669 11.9804 4.60812 12.6264 3.929 13.556C3.21018 13.1752 2.59376 12.6267 2.132 11.957C2.06676 11.8623 2.02418 11.7539 2.00753 11.6401C1.99089 11.5263 2.00063 11.4102 2.03601 11.3008C2.07138 11.1914 2.13145 11.0916 2.21156 11.0091C2.29166 10.9266 2.38967 10.8636 2.498 10.825C4.141 10.237 5.025 9.575 5.532 8.61C6.084 7.555 6.186 6.436 5.819 4.932C5.79117 4.8182 5.79039 4.69946 5.81672 4.5853C5.84304 4.47115 5.89575 4.36475 5.9706 4.27463C6.04546 4.18451 6.14039 4.11318 6.24777 4.06636C6.35516 4.01953 6.47203 3.99852 6.589 4.005V4.005Z" fill="#D580FF"/>
</svg>

<svg width="24" height="24" fill="none" xmlns="http://www.w3.org/2000/svg"><path d="M13.002 8.012c3.168 0 4.966 2.098 5.227 4.63h.08a3.687 3.687 0 0 1 3.692 3.683 3.685 3.685 0 0 1-3.692 3.683H7.694a3.687 3.687 0 0 1-3.692-3.683 3.687 3.687 0 0 1 3.692-3.683h.08c.263-2.549 2.06-4.63 5.228-4.63ZM6.589 4.005a5.058 5.058 0 0 1 2.263.673 5.057 5.057 0 0 1 2.208 2.595c-1.984.563-3.404 2.002-3.994 3.947l-.069.246-.058.238-.206.038a4.67 4.67 0 0 0-2.804 1.814 5.06 5.06 0 0 1-1.797-1.599.75.75 0 0 1 .366-1.132c1.643-.588 2.527-1.25 3.034-2.215.552-1.055.654-2.174.287-3.678a.75.75 0 0 1 .77-.927Z" fill="#D580FF"/></svg>
